themes/SuiteP/images/sub_panel/basic.svg

<?xml version="1.0" encoding="UTF-8" standalone="no"?>
<svg width="30px" height="30px" viewBox="0 0 30 30" version="1.1" xmlns="http://www.w3.org/2000/svg" xmlns:xlink="http://www.w3.org/1999/xlink">
    <!-- Generator: Sketch 39.1 (31720) - http://www.bohemiancoding.com/sketch -->
    <title>acc_default_module</title>
    <desc>Created with Sketch.</desc>
    <defs></defs>
    <g id="Page-1" stroke="none" stroke-width="1" fill="none" fill-rule="evenodd">
        <g id="acc_default_module" fill="#ffffff">
            <path d="M27.7706731,8.62061017 C27.7706731,8.61471186 27.7692308,8.60733898 27.7692308,8.60144068 C27.7485577,8.32127119 27.6,8.06764407 27.3596154,7.92559322 L15.9903846,1.21676271 C15.7307692,1.06537288 15.4115385,1.06537288 15.1543269,1.21676271 L3.78701923,7.92559322 C3.54663462,8.06764407 3.39807692,8.32127119 3.37740385,8.60144068 C3.37740385,8.60733898 3.37548077,8.61274576 3.37548077,8.62061017 C3.37548077,8.63584746 3.37019231,8.65108475 3.37019231,8.66681356 L3.37019231,22.0874237 C3.37019231,22.392661 3.52980769,22.6752881 3.78894231,22.8286441 L15.15625,29.5389492 C15.1658654,29.5448475 15.1769231,29.5468136 15.1865385,29.5527119 C15.23125,29.5777797 15.2783654,29.5969492 15.3293269,29.6121864 C15.3461538,29.6180847 15.3610577,29.6234915 15.3778846,29.6274237 C15.4418269,29.642661 15.5076923,29.6544576 15.575,29.6544576 C15.6427885,29.6544576 15.7086538,29.642661 15.7721154,29.6274237 C15.7894231,29.6234915 15.8043269,29.6180847 15.8211538,29.6121864 C15.8701923,29.5969492 15.91875,29.5758136 15.9639423,29.5527119 C15.9730769,29.5468136 15.9846154,29.5448475 15.99375,29.5389492 L27.3615385,22.8286441 C27.6206731,22.6772542 27.7802885,22.3946271 27.7802885,22.0874237 L27.7802885,8.66681356 C27.7764423,8.65108475 27.7706731,8.63584746 27.7706731,8.62061017 L27.7706731,8.62061017 Z M15.5730769,2.9449661 L25.3105769,8.69335593 L15.5730769,14.4402712 L5.83413462,8.69138983 L15.5730769,2.9449661 Z M5.04134615,10.1988983 L14.1067308,15.5501356 C14.0706731,15.5535763 14.0370192,15.5653729 14.0052885,15.5865085 L13.0605769,16.1448814 C12.9269231,16.2240169 12.8822115,16.3985085 12.9591346,16.534661 C13.0096154,16.6270678 13.1038462,16.6772034 13.2014423,16.6772034 C13.2480769,16.6772034 13.2971154,16.6654068 13.3403846,16.6383729 L14.2850962,16.08 C14.4086538,16.0067627 14.4519231,15.8534068 14.3975962,15.722661 L14.7375,15.9241864 L14.7375,27.3197119 L5.04134615,21.5939322 L5.04134615,10.1988983 Z M16.4091346,27.3157797 L16.4091346,15.9202542 L16.7490385,15.7187288 C16.6942308,15.8494746 16.7375,16.0047966 16.8615385,16.0780339 L17.80625,16.6364068 C17.8495192,16.6634407 17.8980769,16.6752373 17.9451923,16.6752373 C18.0408654,16.6752373 18.1346154,16.6231356 18.1875,16.5331864 C18.2644231,16.3965424 18.2192308,16.2220508 18.0860577,16.1434068 L17.1413462,15.5845424 C17.1096154,15.5653729 17.0735577,15.5535763 17.0399038,15.5481695 L26.1052885,10.1969322 L26.1052885,21.5924576 L16.4091346,27.3157797 Z" id="Fill-1"></path>
            <path d="M23.7596154,19.491678 L22.8149038,18.9328136 C22.6817308,18.8522034 22.5105769,18.9003729 22.4336538,19.0365254 C22.3567308,19.1731695 22.4014423,19.347661 22.5350962,19.4263051 L23.4798077,19.9851695 C23.5230769,20.0122034 23.5716346,20.0235085 23.61875,20.0235085 C23.7144231,20.0235085 23.8081731,19.9718983 23.8610577,19.8814576 C23.9399038,19.7453051 23.8927885,19.570322 23.7596154,19.491678 L23.7596154,19.491678 Z" id="Fill-2"></path>
            <path d="M25.6524038,20.6094068 L24.7076923,20.0505424 C24.5745192,19.9718983 24.4038462,20.0176102 24.3264423,20.1542542 C24.2495192,20.2904068 24.2947115,20.4653898 24.4278846,20.5440339 L25.3725962,21.1024068 C25.4158654,21.1294407 25.4649038,21.1412373 25.5115385,21.1412373 C25.6072115,21.1412373 25.7014423,21.0891356 25.7538462,20.9991864 C25.8307692,20.8605763 25.7860577,20.6880508 25.6524038,20.6094068 L25.6524038,20.6094068 Z" id="Fill-3"></path>
            <path d="M21.8682692,18.3764068 L20.9235577,17.8175424 C20.7903846,17.7388983 20.6192308,17.7846102 20.5423077,17.9212542 C20.4653846,18.0574068 20.5105769,18.2323898 20.64375,18.3110339 L21.5884615,18.8694068 C21.6317308,18.8964407 21.6802885,18.9082373 21.7274038,18.9082373 C21.8230769,18.9082373 21.9173077,18.8561356 21.9697115,18.7661864 C22.0485577,18.6295424 22.0014423,18.4550508 21.8682692,18.3764068 L21.8682692,18.3764068 Z" id="Fill-4"></path>
            <path d="M19.9769231,17.2606441 L19.0326923,16.7017797 C18.8990385,16.6211695 18.7283654,16.669339 18.6514423,16.8054915 C18.5745192,16.9421356 18.6192308,17.1166271 18.7528846,17.1952712 L19.6971154,17.7541356 C19.7403846,17.7811695 19.7894231,17.7924746 19.8365385,17.7924746 C19.9322115,17.7924746 20.0259615,17.7408644 20.0783654,17.6504237 C20.1576923,17.5123051 20.1105769,17.337322 19.9769231,17.2606441 L19.9769231,17.2606441 Z" id="Fill-5"></path>
            <path d="M6.44038462,20.0505424 L5.49567308,20.6074407 C5.3625,20.6860847 5.31730769,20.8605763 5.39423077,20.9972203 C5.44519231,21.0891356 5.53894231,21.1392712 5.63653846,21.1392712 C5.68365385,21.1392712 5.73269231,21.1274746 5.77548077,21.1009322 L6.72019231,20.5440339 C6.85384615,20.4653898 6.89855769,20.2904068 6.82163462,20.1542542 C6.74278846,20.0176102 6.57211538,19.9718983 6.44038462,20.0505424 L6.44038462,20.0505424 Z" id="Fill-6"></path>
            <path d="M12.1139423,16.7017797 L11.1673077,17.2606441 C11.0341346,17.3392881 10.9889423,17.5142712 11.0658654,17.6504237 C11.1168269,17.742339 11.2105769,17.7924746 11.3081731,17.7924746 C11.3552885,17.7924746 11.4038462,17.7811695 11.4471154,17.7541356 L12.39375,17.1952712 C12.5269231,17.1166271 12.5721154,16.9421356 12.4951923,16.8054915 C12.4163462,16.669339 12.2471154,16.6211695 12.1139423,16.7017797 L12.1139423,16.7017797 Z" id="Fill-7"></path>
            <path d="M8.33173077,18.9347797 L7.38701923,19.491678 C7.25384615,19.570322 7.20865385,19.7453051 7.28557692,19.8814576 C7.33653846,19.9738644 7.43028846,20.0235085 7.52788462,20.0235085 C7.575,20.0235085 7.62355769,20.0122034 7.66682692,19.9851695 L8.61153846,19.4282712 C8.74471154,19.3496271 8.78990385,19.1751356 8.71298077,19.0384915 C8.63413462,18.902339 8.46298077,18.8541695 8.33173077,18.9347797 L8.33173077,18.9347797 Z" id="Fill-8"></path>
            <path d="M10.2225962,17.8175424 L9.27836538,18.3764068 C9.14471154,18.4550508 9.1,18.6295424 9.17692308,18.7661864 C9.22740385,18.8581017 9.32115385,18.9082373 9.41923077,18.9082373 C9.46586538,18.9082373 9.51490385,18.8964407 9.55817308,18.8694068 L10.5024038,18.3110339 C10.6360577,18.2323898 10.68125,18.0574068 10.6038462,17.9212542 C10.525,17.7846102 10.3543269,17.7388983 10.2225962,17.8175424 L10.2225962,17.8175424 Z" id="Fill-9"></path>
        </g>
    </g>
</svg>

<?xml version="1.0" encoding="utf-8"?>
<!-- Generator: Adobe Illustrator 15.0.0, SVG Export Plug-In . SVG Version: 6.00 Build 0)  -->
<!DOCTYPE svg PUBLIC "-//W3C//DTD SVG 1.1//EN" "http://www.w3.org/Graphics/SVG/1.1/DTD/svg11.dtd">
<svg version="1.1" id="图层_1" xmlns="http://www.w3.org/2000/svg" xmlns:xlink="http://www.w3.org/1999/xlink" x="0px" y="0px"
	 width="30px" height="30px" viewBox="0 0 30 30" enable-background="new 0 0 30 30" xml:space="preserve">
<title>acc_default_module</title>
<desc>Created with Sketch.</desc>
<g id="Page-1">
	<g id="acc_default_module">
		<path id="Fill-1" fill="#999999" d="M27.771,8.621c0-0.006-0.001-0.013-0.001-0.019c-0.021-0.28-0.17-0.534-0.41-0.676
			L15.99,1.217c-0.26-0.151-0.579-0.151-0.836,0L3.787,7.926c-0.24,0.142-0.389,0.396-0.41,0.676c0,0.006-0.002,0.011-0.002,0.019
			c0,0.015-0.005,0.03-0.005,0.046v13.421c0,0.305,0.16,0.588,0.419,0.74l11.367,6.711c0.01,0.006,0.021,0.008,0.03,0.014
			c0.045,0.025,0.092,0.044,0.143,0.06c0.017,0.006,0.032,0.011,0.049,0.015c0.064,0.016,0.13,0.027,0.197,0.027
			s0.134-0.012,0.196-0.027c0.018-0.004,0.033-0.009,0.05-0.015c0.049-0.016,0.098-0.036,0.143-0.06
			c0.009-0.006,0.021-0.008,0.03-0.014l11.367-6.711c0.26-0.15,0.419-0.434,0.419-0.74V8.667
			C27.776,8.651,27.771,8.636,27.771,8.621L27.771,8.621z M15.573,2.945l9.737,5.749l-9.737,5.747L5.834,8.691L15.573,2.945z
			 M5.042,10.199l9.065,5.352c-0.036,0.003-0.07,0.015-0.102,0.035l-0.945,0.559c-0.134,0.08-0.178,0.254-0.102,0.391
			c0.051,0.092,0.145,0.143,0.243,0.143c0.046,0,0.095-0.012,0.139-0.039l0.945-0.559c0.124-0.073,0.167-0.227,0.112-0.357
			l0.34,0.201V27.32l-9.696-5.727V10.199z M16.409,27.316V15.92l0.34-0.201c-0.055,0.131-0.012,0.286,0.112,0.359l0.945,0.559
			c0.043,0.027,0.092,0.039,0.139,0.039c0.096,0,0.189-0.053,0.242-0.143c0.077-0.137,0.031-0.311-0.102-0.39l-0.945-0.56
			c-0.031-0.019-0.066-0.03-0.101-0.035l9.065-5.352v11.395L16.409,27.316z"/>
		<path id="Fill-2" fill="#999999" d="M23.76,19.492l-0.945-0.56c-0.133-0.081-0.304-0.032-0.381,0.104
			c-0.076,0.137-0.032,0.311,0.102,0.389l0.945,0.56c0.043,0.026,0.092,0.038,0.139,0.038c0.096,0,0.189-0.052,0.242-0.143
			C23.939,19.745,23.893,19.57,23.76,19.492L23.76,19.492z"/>
		<path id="Fill-3" fill="#999999" d="M25.652,20.609l-0.945-0.559c-0.133-0.079-0.303-0.033-0.381,0.104
			c-0.076,0.137-0.031,0.311,0.102,0.39l0.945,0.559c0.043,0.026,0.092,0.038,0.139,0.038c0.096,0,0.189-0.052,0.242-0.142
			C25.83,20.86,25.786,20.688,25.652,20.609L25.652,20.609z"/>
		<path id="Fill-4" fill="#999999" d="M21.868,18.377l-0.944-0.56c-0.133-0.079-0.305-0.032-0.381,0.104
			c-0.078,0.136-0.032,0.311,0.101,0.389l0.944,0.559c0.044,0.027,0.092,0.039,0.14,0.039c0.096,0,0.19-0.053,0.242-0.143
			C22.049,18.629,22.002,18.455,21.868,18.377L21.868,18.377z"/>
		<path id="Fill-5" fill="#999999" d="M19.977,17.261l-0.943-0.56c-0.135-0.08-0.305-0.031-0.382,0.104
			c-0.077,0.137-0.032,0.312,0.102,0.39l0.944,0.559c0.043,0.027,0.092,0.039,0.139,0.039c0.096,0,0.189-0.053,0.242-0.143
			C20.158,17.512,20.11,17.338,19.977,17.261L19.977,17.261z"/>
		<path id="Fill-6" fill="#999999" d="M6.44,20.051l-0.945,0.557c-0.133,0.078-0.178,0.253-0.102,0.39
			c0.051,0.092,0.145,0.142,0.243,0.142c0.047,0,0.096-0.012,0.139-0.037l0.945-0.558c0.134-0.079,0.178-0.253,0.102-0.39
			C6.743,20.018,6.572,19.972,6.44,20.051L6.44,20.051z"/>
		<path id="Fill-7" fill="#999999" d="M12.114,16.701l-0.946,0.56c-0.133,0.079-0.179,0.253-0.102,0.39
			c0.051,0.092,0.145,0.143,0.242,0.143c0.047,0,0.096-0.012,0.139-0.039l0.946-0.559c0.133-0.078,0.179-0.253,0.102-0.39
			C12.417,16.67,12.247,16.621,12.114,16.701L12.114,16.701z"/>
		<path id="Fill-8" fill="#999999" d="M8.332,18.935l-0.944,0.558c-0.133,0.078-0.179,0.253-0.102,0.389
			c0.051,0.093,0.145,0.143,0.242,0.143c0.047,0,0.096-0.012,0.139-0.038l0.944-0.558c0.133-0.078,0.179-0.252,0.102-0.389
			C8.634,18.902,8.463,18.854,8.332,18.935L8.332,18.935z"/>
		<path id="Fill-9" fill="#999999" d="M10.223,17.817l-0.944,0.56c-0.134,0.078-0.178,0.252-0.102,0.389
			c0.051,0.092,0.145,0.143,0.243,0.143c0.046,0,0.096-0.012,0.139-0.039l0.944-0.559c0.134-0.078,0.179-0.253,0.102-0.389
			C10.525,17.785,10.354,17.738,10.223,17.817L10.223,17.817z"/>
	</g>
</g>
</svg>
